icons/bag-circle-add.svg

<svg xmlns="http://www.w3.org/2000/svg" viewBox="0 0 24 24" fill="currentColor">
  <path d="M12.05 1.7876c.4143 0 .75.33578.75.75v1.75h1.75c.4143 0 .75.33578.75.75 0 .41421-.3357.75-.75.75H12.8v1.75c0 .41421-.3357.75-.75.75-.4142 0-.75-.33579-.75-.75v-1.75H9.55005c-.41421 0-.75-.33579-.75-.75 0-.41422.33579-.75.75-.75H11.3v-1.75c0-.41422.3358-.75.75-.75ZM6.18048 5.60737c.29289.29289.29289.76776 0 1.06066-3.07485 3.07484-3.20166 8.00467-.38043 11.23247v-3.4629c0-2.0142 1.63581-3.65 3.65002-3.65H14.55c2.0143 0 3.6501 1.6358 3.6501 3.65v3.4631c2.8214-3.2278 2.6946-8.15777-.3803-11.23267-.2929-.2929-.2929-.76777 0-1.06066.2929-.2929.7678-.2929 1.0607 0 3.7929 3.79289 3.7929 9.96773 0 13.76063-3.7929 3.7929-9.96779 3.7929-13.76068 0-3.7929-3.7929-3.7929-9.96774 0-13.76063.29289-.2929.76776-.2929 1.06066 0ZM16.7001 19.2447c-2.8127 1.9573-6.5874 1.9572-9.40005-.0001v-4.807c0-1.1858.96424-2.15 2.15002-2.15H14.55c1.1858 0 2.1501.9642 2.1501 2.15v4.8071Zm-6.1973-4.7139c-.2799-.3053-.7543-.326-1.05964-.0461-.30534.2799-.32596.7544-.04607 1.0597 1.40951 1.5377 3.80371 1.503 5.28321.0235.2929-.2929.2929-.7677 0-1.0606-.2929-.2929-.7678-.2929-1.0607 0-.9205.9205-2.3263.8858-3.1168.0235Z"/>
</svg>

<svg width="24" height="24" viewBox="0 0 24 24" fill="none" xmlns="http://www.w3.org/2000/svg">
<path fill-rule="evenodd" clip-rule="evenodd" d="M12.05 1.7876C12.4643 1.7876 12.8 2.12338 12.8 2.5376V4.2876H14.55C14.9643 4.2876 15.3 4.62338 15.3 5.0376C15.3 5.45181 14.9643 5.7876 14.55 5.7876H12.8V7.5376C12.8 7.95181 12.4643 8.2876 12.05 8.2876C11.6358 8.2876 11.3 7.95181 11.3 7.5376V5.7876H9.55005C9.13584 5.7876 8.80005 5.45181 8.80005 5.0376C8.80005 4.62338 9.13584 4.2876 9.55005 4.2876H11.3V2.5376C11.3 2.12338 11.6358 1.7876 12.05 1.7876ZM6.18048 5.60737C6.47337 5.90026 6.47337 6.37513 6.18048 6.66803C3.10563 9.74287 2.97882 14.6727 5.80005 17.9005V14.4376C5.80005 12.4234 7.43586 10.7876 9.45007 10.7876H14.55C16.5643 10.7876 18.2001 12.4234 18.2001 14.4376V17.9007C21.0215 14.6729 20.8947 9.74293 17.8198 6.66803C17.5269 6.37513 17.5269 5.90026 17.8198 5.60737C18.1127 5.31447 18.5876 5.31447 18.8805 5.60737C22.6734 9.40026 22.6734 15.5751 18.8805 19.368C15.0876 23.1609 8.91271 23.1609 5.11982 19.368C1.32692 15.5751 1.32692 9.40026 5.11982 5.60737C5.41271 5.31447 5.88758 5.31447 6.18048 5.60737ZM16.7001 19.2447C13.8874 21.202 10.1127 21.2019 7.30005 19.2446V14.4376C7.30005 13.2518 8.26429 12.2876 9.45007 12.2876H14.55C15.7358 12.2876 16.7001 13.2518 16.7001 14.4376V19.2447ZM10.5028 14.5308C10.2229 14.2255 9.7485 14.2048 9.44316 14.4847C9.13782 14.7646 9.1172 15.2391 9.39709 15.5444C10.8066 17.0821 13.2008 17.0474 14.6803 15.5679C14.9732 15.275 14.9732 14.8002 14.6803 14.5073C14.3874 14.2144 13.9125 14.2144 13.6196 14.5073C12.6991 15.4278 11.2933 15.3931 10.5028 14.5308Z" fill="black"/>
</svg>
